X:1
T:Title
%%score [ ( 1 2 ) ( 3 4 ) ]
L:1/8
Q:1/4=120
M:4/4
K:G
V:1 treble nm="Midi_74" snm=" "
V:2 treble 
V:3 bass nm="Midi_74"
V:4 bass 
V:1
!mp!!mp!"^George Doane\n1799-1859" D2 | G2!mf! A2 B2"^," G2 |"^Thou art the Way" A2 c2 B2 B2 | %3
w: Thou|art the Way: by|thee a- lone From|
w: |||
w: Thou|art the Life: the|ren- ding tomb Pro-|
 E2 F2 G2 E2 |"^Raphael Courteville\n?1675-1772" D6 || A2 | B2 G2 c2 B2 | E2 A2 F2 D2 | %8
w: sin and death we|flee;|And|he who would the|Fa- ther seek Must|
w: |||||
w: claims thy con- qu'ring|arm;|And|those who put their|trust in thee Nor|
 GA B2 c2 A2 | G6 |]!f! D2 | G2 A2 B2 G2 | A2 c2 B2 B2 | E2 F2 G2 E2 | D6 || %15
w: seek * him, Lord, by|thee.|Thou|art the Way, the|Truth, the Life: Grant|us that Way to|know,|
w: |||||||
w: death * nor hell shall|harm.||||||
"^This edition produced by Andrew Sims 2008" A2 | B2 G2 c2 B2 | E2 A2 F2 D2 | GA B2 c2 A2 | G6 |] %20
w: The|Truth to keep, that|Life to win, Whose|joys * e- ter- nal|flow.|
w: |||||
w: |||||
V:2
 B,2 | B,2 D2 D2 D2 | D2 E2 D2 D2 | ^C2 D2 D2 C2 | D6 || D2 | D2 D2 C2 D2 | C2 E2 D2 D2 | %8
w: ||||||||
w: Thou|art the Truth: thy|word a- lone True|wis- dom can im-|part;|Thou|on- ly canst in-|form the mind And|
 D2 D2 C2 D2 | B,6 |] x2 | x8 | x8 | x8 | x6 || x2 | x8 | x8 | x8 | x6 |] %20
w: ||||||||||||
w: pu- ri- fy the|heart.|||||||||||
V:3
 G,2 | G,2 F,2 G,2 G,2 | F,2 G,2 G,2 G,2 | G,2 F,2 B,2 A,G, | F,6 || F,2 | G,2 G,2 E,F, G,2 | %7
 G,2 C2 A,2 F,2 | G,2 G,2 E,2 F,2 | G,6 |][M:4/4] z2 | z8 | z8 | z8 | z6 ||[M:4/4] z2 | z8 | z8 | %18
 z8 | z6 |] %20
V:4
 G,2 | E,2 D,2 G,,2 B,,2 | D,2 C,2 G,,2 G,,2 | A,,2 D,2 G,,2 A,,2 | D,6 || D,2 | %6
 G,,2 B,,2 A,,2 B,,2 | C,2 A,,2 D,2 D,C, | B,,A,, G,,2 A,,2 D,2 | G,6 |][M:4/4] x2 | x8 | x8 | x8 | %14
 x6 ||[M:4/4] x2 | x8 | x8 | x8 | x6 |] %20

